X:144
T:Time Goes
M:C|
L:1/8
C:© Paul Gitlitz 2005
R:Tango
B:Anna's Smile
K:Gm
d^cd|:"Gm"BG2zzd^cd|"Cm"ec2z zABc|"Gm"dBcA "D7"BGA^F|"Gm"Gd^cd "D7"edcd|!
"Gm"BG2D GABd|"Cm"{cd-}cA2z zABc|"Gm"de/d/ cd/c/ "D7"Bc/B/ AB/A/|1"Gm"G4-Gd^cd:|2"Gm"G4-Gg"D7"^fg|!
"Eb"e4-eg^fg|"Gm"d4-dg^fg|"D7"a4-a^fga|"Gm"b4-bg^fg|!
"Eb"e4-eg^fg|"Gm"d4-dABc|"D7"d^cde d=cBA|"Gm"G4-"D7"Gg^fg|!
"Eb"e4-eg^fg|"Gm"d4-dg^fg|"D7"a4-a^fga|"Gm"b4-bg^fg|!
"Eb"e4-eg^fg|"Gm"d4-dABc|"D7"de/d/ cd/c/  Bc/B/ AB/A/|"Gm"G4-G|]
